X:1
T:Lady Iveach
T:Lady Iveach
T:Thomas Connallon, 1660
C:Thomas Connallon, 1660
L:1/8
Q:1/4=120
M:2/4
K:C
V:1 treble 
V:1
"^Quick and Spirited" (A2 (d)B) | A2 (B/A/G/^F/) | G2 z A | G2 (A/G/E/D/) | A2 z B | %5
 .c(3c/d/e .d.B x/24 | (G>^F) (GB) | A2 z2 | A2 (dB) | (A2 (B/)A/G/^F/) | G2 z A | G2 (A/G/E/D/) | %12
 A2 z .B | .c(3c/d/e/ (.d.B) | (A>^F) (.G.B) | A2- A z :: (.g>.f .g.a) | [dg]2 (a/g/e/d/) | %18
 (.a>^g .a.b) | a2 (b/a/g/e/) | [dg]2 z [ca] | .g(3d/e/^f/ .g(3d/e/f/ | .g(3e/^f/^g/ .a(3e/f/g/ | %23
 a [Aa]2 (g/>a/) | (.b.a.g.b) | (a2 g)(e/^f/) | .g.e .d.g | (e2 d).B | A2 z B | .c(3c/d/e/ .d.B | %30
 (G>^F) (GB) | A2- A z :| %32

